X:1
T:Title
%%score { ( 1 3 ) | ( 2 4 ) }
L:1/8
M:4/4
K:Bb
V:1 treble nm="Grand Piano"
V:3 treble 
V:2 bass 
V:4 bass 
V:1
 z4 z2[Q:1/4=100] [DF][DB] | [Fd][Fd][Fd][Fd] [Ge]2 [Fd][DB] |[M:3/4] [EG][Ec] [Gc][Gc] [Gd]2 | %3
[M:1/4] [Gc][Gc] |[M:4/4] BAGF GABc |[M:3/4] d6[K:bass] |[M:1/4][K:treble] [DF][DB] | %7
[M:4/4] [Fd][Fd][Fd][Fd] [Ge]2 [Fd][DB] |[M:3/4] [EG][Ec] [Gc][Gc] [Gd]2 |[M:1/4] [Gc][Gc] | %10
[M:4/4] BAGF GGAA |[M:3/4] [DB]6[K:bass] |[M:1/4][K:treble] FB |[M:4/4] A2 e[Ae] [Ae]2 Ac | %14
 B2 dd d2 [DF][DF] | GFGA B2 [=Ec][Ec] | F6 z2 | [Fd][Fd][Fd][Fd] [Ge]2 [Fd][DB] | %18
 [EG][Ec][Gc][Gc] [Gd]2 [Gc][Gc] | BAGF G2 AA |[M:3/4] [DB]6 |] %21
V:2
 z4 z2 [B,,B,][B,,B,] | [B,,B,][B,,B,][B,,B,][B,,B,] [B,,B,]2 [B,,B,][B,,B,] | %2
[M:3/4] [E,B,][E,G,] [E,E][E,E] [E,E]2 |[M:1/4] [E,E][E,E] | %4
[M:4/4] [F,DF][F,CF][F,B,E][F,A,E] [F,B,E][F,CE][F,B,D][K:treble][F,A,F] |[M:3/4] [B,F]6 | %6
[M:1/4][K:bass] [B,,B,][B,,B,] |[M:4/4] [B,,B,][B,,B,][B,,B,][B,,B,] [B,,B,]2 [B,,B,][B,,B,] | %8
[M:3/4] [E,B,][E,G,] [E,E][E,E] [E,E]2 |[M:1/4] [E,E][E,E] | %10
[M:4/4] [F,DF][F,CF][F,B,E][F,A,E] [F,B,E][F,B,E][F,CE][F,CE] |[M:3/4] [B,,B,]2 B,,B,, B,,2 | %12
[M:1/4] z2 |[M:4/4] z2 [F,A,F][F,C] [F,C]2 z2 | %14
 z2[K:treble] [B,F][B,F] [B,F]2[K:bass] [B,,B,][B,,B,] | %15
 [E,B,E][E,B,D][E,B,E][E,A,E] [E,G,E]2 [C,G,][C,B,] | [F,A,]2 F,F, F,2 [B,,B,][B,,B,] | %17
 [B,,B,][B,,B,][B,,B,][B,,B,] [B,,B,]2 [B,,B,][B,,B,] | [E,B,][E,G,][E,E][E,E] [E,E]2 [E,E][E,E] | %19
 .D2 z2 z4 |[M:3/4] [B,,B,]6 |] %21
V:3
 x8 | x8 |[M:3/4] x6 |[M:1/4] x2 |[M:4/4] x8 |[M:3/4] z2[K:bass] F,D, B,,2 |[M:1/4][K:treble] x2 | %7
[M:4/4] x8 |[M:3/4] x6 |[M:1/4] x2 |[M:4/4] x8 |[M:3/4] z2[K:bass] F,F, F,2 |[M:1/4][K:treble] x2 | %13
[M:4/4] x8 | x8 | x8 | z2 A,A, A,2 [DF][DB] | x8 | x8 | x8 |[M:3/4] x6 |] %21
V:4
 x8 | x8 |[M:3/4] x6 |[M:1/4] x2 |[M:4/4] x7[K:treble] x |[M:3/4] x6 |[M:1/4][K:bass] x2 | %7
[M:4/4] x8 |[M:3/4] x6 |[M:1/4] x2 |[M:4/4] x8 |[M:3/4] x6 |[M:1/4] x2 |[M:4/4] x8 | %14
 x2[K:treble] x4[K:bass] x2 | x8 | x8 | x8 | x8 | %19
 [F,F]-[F,CF][F,B,E][F,A,E] [F,B,E]2 [F,CE][F,CE] |[M:3/4] x6 |] %21

